svg/gin.svg

<svg viewBox="0 0 20 20" xmlns="http://www.w3.org/2000/svg">
<rect width="100%" height="100%" fill="#008FD0"/>
<path d="M1.81014 6.18912C1.9195 6.22119 1.92883 6.10874 1.95536 6.06158C2.02448 5.93869 2.19222 5.89378 2.20329 5.73067C2.22315 5.75099 2.2275 5.7315 2.23424 5.71809L2.23128 5.72206C2.31647 5.72766 2.39021 5.68735 2.46692 5.66045C3.09668 5.4396 3.71892 5.19417 4.37441 5.05704C4.98364 4.9296 5.59147 4.87911 6.19871 5.07746C6.45984 5.16276 6.66489 5.34832 6.90714 5.46257C8.50963 6.21829 9.18089 8.36219 8.28624 9.90102C7.82584 10.6929 7.06311 11.0836 6.26644 11.4184C6.02833 11.5185 5.76905 11.5566 5.50985 11.5642C4.0955 11.6059 2.9563 11.0397 2.08702 9.92859C1.55163 9.24425 1.32666 8.45563 1.45617 7.57812C1.50602 7.24029 1.64307 6.93264 1.76028 6.61707C1.81028 6.48247 1.87901 6.34162 1.81014 6.18912ZM1.70397 8.63738C1.6995 9.02234 1.92417 9.30116 2.33846 9.4226C2.55989 9.4875 2.78945 9.48156 3.01604 9.50494C3.57423 9.56251 4.10839 9.24791 4.31555 8.72128C4.38756 8.53821 4.41113 8.35006 4.33675 8.1673C4.21806 7.87567 4.06508 7.60283 3.82321 7.3937C3.61944 7.2175 3.38555 7.13031 3.11339 7.14219C2.44216 7.17149 1.71204 7.94291 1.70397 8.63738Z" fill="#FBFCFC"/>
<path d="M9.85742 10.4248C10.8221 10.4548 11.6525 10.8249 12.3655 11.4727C12.9088 11.9664 13.3201 12.5522 13.539 13.2661C13.6704 13.6948 13.6494 13.7488 13.2615 13.9865C13.0314 14.1274 12.7987 14.2667 12.583 14.4284C12.0166 14.8529 11.9694 15.2066 12.0606 15.8235C12.1477 16.4131 11.7898 16.8411 11.1817 16.7132C10.8982 16.6536 10.6245 16.5465 10.3408 16.4886C9.96666 16.4121 9.60532 16.4105 9.34463 16.7766C9.2476 16.9129 9.10248 16.8705 8.9085 16.7606C8.44702 16.4991 8.36712 16.0479 8.29842 15.5875C8.25258 15.2803 8.23746 14.9675 8.1785 14.6632C8.11569 14.339 7.97895 14.0474 7.67811 13.8685C7.52234 13.7759 7.34606 13.7459 7.17489 13.7099C7.03864 13.6812 7.00587 13.6103 6.9839 13.4834C6.86146 12.7765 7.23142 12.2883 7.6827 11.8344C8.03678 11.4783 8.47395 11.2108 8.80457 10.8376C9.10237 10.5014 9.44413 10.4027 9.85742 10.4248ZM12.0801 13.7805C12.3451 13.7901 12.6183 13.7481 12.8826 13.6382C13.0225 13.58 13.1152 13.5166 13.0497 13.3401C13.0198 13.2596 13.0291 13.1652 13.0091 13.0799C12.9027 12.6269 12.6947 12.2571 12.2252 12.0973C12.0381 12.0336 11.8505 12.0574 11.6609 12.0615C11.4651 12.0656 11.2691 12.0366 11.0731 12.0671C10.5084 12.1549 9.94733 12.2722 9.37404 12.2919C9.00916 12.3045 8.65145 12.2662 8.31307 12.1134C8.26138 12.09 8.21621 12.0617 8.14879 12.079C7.98376 12.1213 7.82532 12.1767 7.68172 12.2691C7.34212 12.4874 7.19597 12.8424 7.30271 13.1957C7.39554 13.5029 7.62552 13.6737 7.89829 13.8065C8.1296 13.9191 8.33198 13.8886 8.52734 13.7266C8.5798 13.6831 8.65043 13.6606 8.71486 13.6336C9.27865 13.3982 9.85584 13.4471 10.4377 13.5449C10.9773 13.6356 11.5086 13.7863 12.0801 13.7805ZM11.9212 15.2908C11.8942 14.868 11.7397 14.4528 11.3629 14.1478C11.2028 14.0182 11.0128 13.9571 10.8252 14.0717C10.6172 14.1988 10.4769 14.3911 10.4765 14.6484C10.4762 14.8789 10.4975 15.1095 10.5143 15.3397C10.5321 15.5815 10.551 15.8246 10.6552 16.0482C10.8005 16.36 11.107 16.4561 11.3984 16.2841C11.7542 16.0741 11.9163 15.7536 11.9212 15.2908ZM10.0607 15.1099C10.0572 15.0389 10.0576 14.9674 10.0497 14.8968C10.0224 14.6537 9.96198 14.4199 9.83571 14.2086C9.62921 13.8631 9.36151 13.8534 9.1418 14.1862C9.08063 14.2788 9.03843 14.3843 8.98738 14.4838C8.82616 14.798 8.86807 15.155 8.78169 15.4852C8.73946 15.6467 8.73093 15.8132 8.74673 15.9795C8.76213 16.1417 8.84896 16.255 9.01195 16.2584C9.40447 16.2665 9.74269 16.1677 9.94316 15.7328C10.0339 15.5359 10.0639 15.3259 10.0607 15.1099Z" fill="#030303"/>
<path d="M15.1134 11.7019C14.2757 11.7172 13.5617 11.4764 12.8685 11.1292C12.2954 10.8422 11.7964 10.455 11.3966 9.96576C10.9569 9.42765 10.6841 8.80281 10.6442 8.07865C10.5489 6.34759 11.5069 5.28093 12.8378 4.43955C13.3347 4.12536 13.8845 4.02373 14.4663 4.00334C15.2663 3.97531 16.0238 4.12267 16.738 4.47725C17.697 4.95337 18.3757 5.68825 18.736 6.72067C18.8962 7.17983 19.0212 7.63762 18.997 8.1289C18.9733 8.61197 18.8527 9.06962 18.6277 9.49369C18.0444 10.5931 17.1304 11.2716 15.9513 11.5914C15.6623 11.6698 15.3647 11.7386 15.1134 11.7019ZM11.2797 7.61021C11.2828 8.31454 11.4189 8.82358 11.6673 9.30446C12.2541 10.4403 13.4876 11.2403 14.7895 11.033C14.9158 11.0129 15.0473 11.0073 15.1746 11.0176C15.5046 11.0444 15.8302 11.0292 16.1534 10.9559C17.7173 10.6012 18.7745 8.96841 18.4722 7.38626C18.3653 6.8266 18.0581 6.37565 17.7422 5.92601C17.4903 5.56744 17.1801 5.26988 16.7983 5.06147C15.5683 4.39009 14.3093 4.3978 13.0686 4.99627C11.9323 5.54437 11.3228 6.48001 11.2797 7.61021Z" fill="#030303"/>
<path d="M1.81006 6.18911C1.87893 6.34161 1.81019 6.48246 1.7602 6.61707C1.64299 6.93263 1.50594 7.24028 1.45608 7.57811C1.32658 8.45562 1.55155 9.24424 2.08693 9.92858C2.95621 11.0397 4.09542 11.6059 5.50976 11.5642C5.76896 11.5566 6.02825 11.5185 6.26635 11.4184C7.06302 11.0836 7.82575 10.6929 8.28616 9.90101C9.18081 8.36219 8.50955 6.21828 6.90705 5.46256C6.66481 5.34832 6.45976 5.16275 6.19862 5.07745C5.59138 4.87911 4.98355 4.9296 4.37432 5.05704C3.71884 5.19416 3.0966 5.43959 2.46684 5.66044C2.39013 5.68734 2.31638 5.72765 2.23119 5.72205C2.40615 5.3785 2.69655 5.1501 3.00884 4.95253C3.7445 4.48712 4.55106 4.37933 5.40239 4.46767C6.23417 4.55398 7.00309 4.80765 7.68143 5.30204C8.42778 5.846 8.9745 6.53912 9.15562 7.4797C9.17549 7.58288 9.18891 7.68734 9.20531 7.79119C9.20537 8.00246 9.20542 8.21375 9.20548 8.42503C9.13638 8.95171 8.99523 9.45419 8.75228 9.92927C8.52918 10.3655 8.22024 10.7273 7.85969 11.0466C7.31009 11.5333 6.65696 11.806 5.9495 11.9516C5.78059 11.9864 5.60328 11.9794 5.42985 11.9916C5.22116 11.9918 5.01245 11.9919 4.80374 11.9921C4.32892 11.9796 3.88424 11.8565 3.4441 11.6732C3.02034 11.4967 2.6353 11.2577 2.30085 10.9594C1.64009 10.3702 1.18698 9.63826 1.04091 8.74315C0.979279 8.3655 0.989751 7.98545 1.05575 7.60415C1.09958 7.35088 1.09286 7.08958 1.20845 6.85011C1.31181 6.63599 1.43231 6.43517 1.60806 6.27414C1.66333 6.2235 1.72336 6.17 1.81006 6.18911Z" fill="#030303"/>
<path d="M1.70392 8.63743C1.71199 7.94296 2.44211 7.17154 3.11334 7.14224C3.3855 7.13037 3.61939 7.21756 3.82316 7.39375C4.06503 7.60288 4.21801 7.87572 4.3367 8.16735C4.41108 8.35011 4.38751 8.53827 4.3155 8.72133C4.10834 9.24796 3.57418 9.56256 3.01599 9.50499C2.7894 9.48162 2.55984 9.48756 2.33841 9.42266C1.92412 9.30122 1.69945 9.02239 1.70392 8.63743ZM3.65738 8.49789C3.41802 8.49163 3.29862 8.5603 3.29913 8.68409C3.29959 8.79709 3.59968 9.15361 3.70923 9.17054C3.71971 9.17216 3.73125 9.17007 3.74177 9.16748C3.84872 9.14113 4.0574 8.88791 4.04968 8.78062C4.03707 8.60545 3.90052 8.55576 3.7629 8.5146C3.71868 8.50138 3.67102 8.49992 3.65738 8.49789Z" fill="#030303"/>
<path d="M12.0798 13.7804C11.5084 13.7863 10.977 13.6356 10.4374 13.5449C9.85557 13.4471 9.27837 13.3981 8.71459 13.6336C8.65015 13.6605 8.57952 13.6831 8.52707 13.7266C8.33171 13.8886 8.12933 13.919 7.89802 13.8064C7.62525 13.6736 7.39527 13.5028 7.30244 13.1956C7.19569 12.8423 7.34185 12.4873 7.68144 12.269C7.82504 12.1767 7.98348 12.1212 8.14852 12.0789C8.21593 12.0616 8.2611 12.0899 8.31279 12.1133C8.65117 12.2662 9.00889 12.3044 9.37376 12.2919C9.94706 12.2721 10.5082 12.1549 11.0729 12.067C11.2688 12.0365 11.4648 12.0656 11.6607 12.0614C11.8502 12.0574 12.0379 12.0335 12.2249 12.0972C12.6944 12.2571 12.9024 12.6268 13.0088 13.0798C13.0289 13.1651 13.0195 13.2596 13.0494 13.3401C13.1149 13.5166 13.0222 13.5799 12.8823 13.6381C12.6181 13.748 12.3448 13.7901 12.0798 13.7804Z" fill="#BF9769"/>
<path d="M11.9213 15.2907C11.9164 15.7535 11.7542 16.0741 11.3985 16.284C11.107 16.456 10.8006 16.3599 10.6553 16.0482C10.5511 15.8246 10.5321 15.5814 10.5144 15.3397C10.4975 15.1095 10.4762 14.8788 10.4766 14.6484C10.4769 14.3911 10.6172 14.1988 10.8252 14.0717C11.0129 13.9571 11.2029 14.0181 11.363 14.1477C11.7397 14.4527 11.8942 14.8679 11.9213 15.2907Z" fill="#FAFBFB"/>
<path d="M10.0609 15.1098C10.0641 15.3258 10.0341 15.5358 9.94334 15.7327C9.74287 16.1676 9.40465 16.2664 9.01213 16.2583C8.84914 16.2549 8.7623 16.1416 8.7469 15.9794C8.7311 15.8131 8.73963 15.6466 8.78186 15.4851C8.86825 15.1549 8.82634 14.7979 8.98755 14.4837C9.0386 14.3842 9.0808 14.2787 9.14197 14.1861C9.36168 13.8533 9.62938 13.863 9.83589 14.2085C9.96216 14.4198 10.0226 14.6536 10.0498 14.8967C10.0577 14.9673 10.0574 15.0388 10.0609 15.1098Z" fill="#FAFBFB"/>
<path d="M11.2793 7.61015C11.3224 6.47995 11.932 5.54431 13.0683 4.9962C14.309 4.39774 15.5679 4.39003 16.7979 5.0614C17.1798 5.26982 17.4899 5.56738 17.7418 5.92595C18.0577 6.37559 18.3649 6.82654 18.4718 7.3862C18.7741 8.96834 17.7169 10.6011 16.1531 10.9559C15.8299 11.0292 15.5043 11.0444 15.1743 11.0176C15.047 11.0072 14.9154 11.0129 14.7892 11.033C13.4872 11.2403 12.2537 10.4403 11.6669 9.3044C11.4185 8.82352 11.2824 8.31448 11.2793 7.61015ZM13.1452 8.37674C13.246 8.29231 13.3558 8.27615 13.4672 8.2812C13.6484 8.28942 13.8291 8.31208 14.0103 8.31812C14.234 8.32557 14.3192 8.22667 14.2654 8.01028C14.1476 7.53601 13.9088 7.13386 13.5156 6.84259C13.1585 6.57805 12.7719 6.55656 12.3989 6.79764C11.9151 7.11037 11.6468 7.57485 11.6036 8.15095C11.5559 8.78573 11.865 9.16741 12.4833 9.29289C12.8626 9.36985 13.2298 9.30893 13.5893 9.18982C13.8748 9.09522 13.8966 8.96891 13.6635 8.77473C13.4974 8.63629 13.3208 8.51079 13.1452 8.37674Z" fill="#FBFCFC"/>
<path d="M3.65733 8.49783C3.67097 8.49986 3.71863 8.50133 3.76285 8.51455C3.90047 8.5557 4.03701 8.60539 4.04962 8.78056C4.05735 8.88786 3.84866 9.14107 3.74172 9.16742C3.7312 9.17001 3.71966 9.1721 3.70918 9.17048C3.59962 9.15355 3.29954 8.79704 3.29907 8.68404C3.29856 8.56024 3.41797 8.49157 3.65733 8.49783Z" fill="#FAFBFB"/>
<path d="M13.1453 8.37681C13.3209 8.51086 13.4975 8.63636 13.6636 8.7748C13.8966 8.96897 13.8749 9.09529 13.5894 9.18989C13.2299 9.309 12.8627 9.36992 12.4834 9.29296C11.8651 9.16748 11.556 8.7858 11.6037 8.15102C11.6469 7.57492 11.9152 7.11044 12.399 6.79771C12.772 6.55663 13.1586 6.57812 13.5157 6.84266C13.9089 7.13393 14.1477 7.53608 14.2655 8.01035C14.3193 8.22674 14.234 8.32564 14.0104 8.31819C13.8292 8.31215 13.6485 8.28949 13.4673 8.28127C13.3559 8.27621 13.2461 8.29238 13.1453 8.37681Z" fill="#030303"/>
</svg>

<svg xmlns="http://www.w3.org/2000/svg" viewBox="0 0 20 20">
  <rect width="100%" height="100%" fill="#008FD0"/>
  <path fill="#FBFCFC" d="M1.81 6.19c.1.03.12-.08.15-.13.06-.12.23-.17.24-.33.02.02.03 0 .03-.01.09 0 .16-.03.24-.06.63-.22 1.25-.47 1.9-.6.61-.13 1.22-.18 1.83.02.26.08.46.27.7.38 1.61.76 2.28 2.9 1.39 4.44-.46.8-1.23 1.18-2.02 1.52-.24.1-.5.14-.76.14a4 4 0 0 1-3.42-1.63 2.98 2.98 0 0 1-.63-2.35c.05-.34.18-.65.3-.96.05-.14.12-.28.05-.43Zm-.1 2.45c-.01.38.21.66.63.78.22.07.45.06.68.08.55.06 1.09-.25 1.3-.78.07-.18.1-.37.02-.55-.12-.3-.27-.57-.52-.78a.98.98 0 0 0-.7-.25c-.68.03-1.4.8-1.42 1.5Z"/>
  <path fill="#030303" d="M9.86 10.42c.96.03 1.8.4 2.5 1.05.55.5.96 1.08 1.18 1.8.13.42.1.48-.28.72-.23.14-.46.28-.68.44-.56.42-.61.78-.52 1.4.09.58-.27 1.01-.88.88-.28-.06-.56-.16-.84-.22-.37-.08-.73-.08-1 .29-.1.13-.24.09-.43-.02-.46-.26-.54-.71-.61-1.17-.05-.31-.06-.62-.12-.93-.06-.32-.2-.61-.5-.8-.16-.08-.33-.11-.5-.15-.14-.03-.17-.1-.2-.23-.12-.7.25-1.2.7-1.65.36-.35.8-.62 1.12-1 .3-.33.64-.43 1.06-.4Zm2.22 3.36c.27.01.54-.03.8-.14.14-.06.24-.12.17-.3-.03-.08-.02-.17-.04-.26-.1-.45-.32-.82-.78-.98-.2-.07-.38-.04-.57-.04-.2 0-.4-.02-.59 0-.56.1-1.12.21-1.7.23-.36.01-.72-.02-1.06-.18-.05-.02-.1-.05-.16-.03-.17.04-.32.1-.47.19-.34.22-.48.57-.38.93.1.3.33.47.6.6.23.12.43.09.63-.07.05-.05.12-.07.18-.1a3.04 3.04 0 0 1 1.73-.09c.54.1 1.07.25 1.64.24Zm-.16 1.51a1.54 1.54 0 0 0-.56-1.14c-.16-.13-.35-.2-.53-.08a.66.66 0 0 0-.35.58l.03.69c.02.24.04.48.15.7.14.32.45.42.74.24.35-.2.52-.53.52-.99Zm-1.86-.18-.01-.21a1.69 1.69 0 0 0-.21-.7c-.21-.34-.48-.35-.7-.01-.06.09-.1.2-.15.3-.16.3-.12.66-.2 1-.05.16-.06.32-.04.49.01.16.1.27.26.28.4 0 .73-.1.93-.53.1-.2.12-.4.12-.62ZM15.11 11.7a4.7 4.7 0 0 1-2.24-.57 4.46 4.46 0 0 1-1.47-1.16 3.2 3.2 0 0 1-.76-1.9c-.1-1.72.87-2.79 2.2-3.63.5-.31 1.04-.42 1.63-.44.8-.02 1.55.12 2.27.48a3.83 3.83 0 0 1 2 2.24c.16.46.28.92.26 1.4-.03.5-.15.95-.37 1.37a4.11 4.11 0 0 1-3.52 2.21Zm-3.83-4.09c0 .7.14 1.21.39 1.7.58 1.13 1.82 1.93 3.12 1.72.13-.02.26-.02.38-.01.33.02.66 0 .98-.06a3.12 3.12 0 0 0 2.32-3.57 3.8 3.8 0 0 0-.73-1.46 2.79 2.79 0 0 0-.94-.87A3.9 3.9 0 0 0 13.07 5a2.95 2.95 0 0 0-1.79 2.61ZM1.81 6.19c.07.15 0 .3-.05.43-.12.31-.25.62-.3.96-.13.88.1 1.66.63 2.35a4 4 0 0 0 3.42 1.63c.26 0 .52-.04.76-.14.8-.34 1.56-.73 2.02-1.52.9-1.54.22-3.68-1.38-4.44-.25-.11-.45-.3-.71-.38-.6-.2-1.22-.15-1.83-.02-.65.13-1.27.38-1.9.6-.08.03-.15.07-.24.06.18-.34.47-.57.78-.77a3.62 3.62 0 0 1 2.4-.48c.82.08 1.6.34 2.27.83.75.55 1.3 1.24 1.48 2.18l.05.31v.64a4.57 4.57 0 0 1-.46 1.5 4.03 4.03 0 0 1-2.8 2.02c-.17.04-.35.03-.52.04H4.8a4.05 4.05 0 0 1-3.76-3.25C.98 8.37 1 8 1.06 7.6c.04-.25.03-.51.15-.75.1-.21.22-.41.4-.58.05-.05.11-.1.2-.08Z"/>
  <path fill="#030303" d="M1.7 8.64c.01-.7.74-1.47 1.41-1.5.28-.01.5.08.71.25.25.21.4.49.52.78.07.18.05.37-.02.55-.21.53-.75.84-1.3.78-.23-.02-.46-.01-.68-.08-.42-.12-.64-.4-.64-.78Zm1.96-.14c-.24 0-.36.06-.36.18s.3.47.4.5l.04-.01c.1-.03.32-.28.31-.39-.01-.17-.15-.22-.29-.27l-.1-.01Z"/>
  <path fill="#BF9769" d="M12.08 13.78c-.57 0-1.1-.14-1.64-.24a3.03 3.03 0 0 0-1.73.1c-.06.02-.13.04-.18.09-.2.16-.4.19-.63.08-.27-.14-.5-.3-.6-.61-.1-.36.04-.71.38-.93.15-.1.3-.15.47-.2.07 0 .11.02.16.04.34.16.7.2 1.06.18.58-.02 1.14-.14 1.7-.22.2-.03.4 0 .6 0 .18-.01.37-.04.55.03.47.16.68.53.79.98.02.09.01.18.04.26.06.18-.03.24-.17.3a1.9 1.9 0 0 1-.8.14Z"/>
  <path fill="#FAFBFB" d="M11.92 15.3c0 .45-.17.77-.52.98-.3.18-.6.08-.74-.23-.1-.23-.13-.47-.15-.71-.01-.23-.03-.46-.03-.7 0-.25.14-.44.35-.57.18-.11.37-.05.53.08.38.3.53.72.56 1.14ZM10.06 15.11c0 .22-.03.43-.12.62-.2.44-.54.54-.93.53-.16 0-.25-.12-.26-.28-.02-.17-.01-.33.03-.5.09-.33.05-.68.2-1l.16-.3c.22-.33.49-.32.7.03.12.21.18.44.21.69l.01.21Z"/>
  <path fill="#FBFCFC" d="M11.28 7.61A2.95 2.95 0 0 1 13.07 5a3.9 3.9 0 0 1 3.73.06c.38.21.69.5.94.87.32.45.62.9.73 1.46a3.12 3.12 0 0 1-2.32 3.57c-.32.07-.65.08-.98.06-.12-.01-.25 0-.38.01-1.3.21-2.54-.59-3.12-1.73a3.52 3.52 0 0 1-.4-1.69Zm1.87.77c.1-.09.2-.1.32-.1.18 0 .36.03.54.04.22 0 .3-.1.26-.31a2 2 0 0 0-.75-1.17.92.92 0 0 0-1.12-.04 1.7 1.7 0 0 0-.8 1.35c-.04.64.27 1.02.88 1.14.38.08.75.02 1.1-.1.3-.1.32-.22.08-.42l-.51-.4Z"/>
  <path fill="#FAFBFB" d="m3.66 8.5.1.01c.14.05.28.1.29.27 0 .1-.2.36-.3.39H3.7c-.11-.02-.41-.37-.41-.49s.12-.19.36-.18Z"/>
  <path fill="#030303" d="M13.15 8.38c.17.13.35.26.51.4.24.19.21.32-.07.41-.36.12-.73.18-1.1.1-.62-.12-.93-.5-.89-1.14a1.7 1.7 0 0 1 .8-1.35.92.92 0 0 1 1.12.04c.39.3.63.7.75 1.17.05.22-.04.32-.26.3l-.54-.03a.44.44 0 0 0-.32.1Z"/>
</svg>
